X:1085
T:Sean Reid's
R:reel
H:Usually in G #321
D:We Banjo 3: Gather the Good
Z:id:hn-reel-1085
M:C|
L:1/8
K:A
EA~A2 cA~A2 | dB~B2 ecdB | EAAB cAAc | dBGA BAAG |
EA~A2 cA~A2 | dB~B2 efge | a2ab agef |1 gedB BAAG :|2 gedB BAce ||
|: a3a agef | g2ga gedB | ea~a2 agef | gedB BAce |
a3a agef | g2ga gedB | eaab c'2ba |1 gedB BAce :|2 gedB BAAG ||

